X:38
T:Hull's Victory
S:Bernie Waugh
R:Reel
M:4/4
L:1/8
K:F
|:c2|\
"F"fcfa fcfg|agfef2AB|"C"c2cdc2cB|"C7"ABGAF2"F"c2|
"F"fcfa "Dm"fcfa|"C"g2g2g2ag|"G"fedc "G7"=BcdB|"C"c2[c2e2]"C7"[c2e2]:|
|:c2|\
"F"fefg agfe|"Bb"d2B2B2[B2_g2]|"G"[=B2g2]ga bagf|"C7"e2c2c2de|
"F"fcfa fcfa|"C7"gcgb gcgb|"F"agfa "C7"gfeg|"F"[A2f2][A2a2][A2f2]:|

